;FLAVOR:Marlin
;TIME:8164
;Filament used: 5.44975m
;Layer height: 0.1
;Generated with Cura_SteamEngine 1.0.0
M190 S35
M104 S220
M109 S220
G28
G1 Z50.00 F400
G92 E0
G1 F200 E3
G92 E0
M132 X Y Z A
M907 X100 Y100 Z50 A100
;LAYER_COUNT:189
;LAYER:0
M107
G0 F3600 X22.225 Y20.5 Z0.3
;TYPE:SKIRT
G1 F1500 X-22.225 Y20.5 E2.21762
G1 X-23.014 Y20.46 E2.25703
G1 X-23.794 Y20.341 E2.2964
G1 X-24.559 Y20.143 E2.33582
G1 X-25.299 Y19.869 E2.37519
G1 X-26.008 Y19.521 E2.41459
G1 X-26.679 Y19.103 E2.45403
G1 X-27.303 Y18.62 E2.4934
G1 X-27.876 Y18.077 E2.53279
G1 X-28.391 Y17.478 E2.5722
G1 X-28.842 Y16.83 E2.61158
G1 X-29.226 Y16.139 E2.65102
G1 X-29.538 Y15.414 E2.6904
G1 X-29.775 Y14.661 E2.72979
G1 X-29.934 Y13.887 E2.76921
G1 X-30.015 Y13.102 E2.80858
G1 X-30.025 Y12.7 E2.82864
G1 X-30.025 Y-12.7 E4.09585
G1 X-29.985 Y-13.489 E4.13527
G1 X-29.866 Y-14.269 E4.17463
G1 X-29.668 Y-15.034 E4.21405
G1 X-29.394 Y-15.774 E4.25342
G1 X-29.046 Y-16.483 E4.29283
G1 X-28.628 Y-17.154 E4.33227
G1 X-28.145 Y-17.778 E4.37163
G1 X-27.602 Y-18.351 E4.41102
G1 X-27.003 Y-18.866 E4.45043
G1 X-26.355 Y-19.317 E4.48982
G1 X-25.664 Y-19.701 E4.52926
G1 X-24.939 Y-20.013 E4.56864
G1 X-24.186 Y-20.25 E4.60802
G1 X-23.412 Y-20.409 E4.64744
G1 X-22.627 Y-20.49 E4.68681
G1 X-22.225 Y-20.5 E4.70687
G1 X22.225 Y-20.5 E6.92449
G1 X23.014 Y-20.46 E6.96391
G1 X23.794 Y-20.341 E7.00327
G1 X24.559 Y-20.143 E7.0427
G1 X25.299 Y-19.869 E7.08206
G1 X26.008 Y-19.521 E7.12147
G1 X26.679 Y-19.103 E7.16091
G1 X27.303 Y-18.62 E7.20028
G1 X27.876 Y-18.077 E7.23966
G1 X28.391 Y-17.478 E7.27907
G1 X28.842 Y-16.83 E7.31846
G1 X29.226 Y-16.139 E7.3579
G1 X29.538 Y-15.414 E7.39728
G1 X29.775 Y-14.661 E7.43666
G1 X29.934 Y-13.887 E7.47608
G1 X30.015 Y-13.102 E7.51545
G1 X30.025 Y-12.7 E7.53552
G1 X30.025 Y12.7 E8.80273
G1 X29.985 Y13.489 E8.84214
G1 X29.866 Y14.269 E8.88151
G1 X29.668 Y15.034 E8.92093
G1 X29.394 Y15.774 E8.9603
G1 X29.046 Y16.483 E8.9997
G1 X28.628 Y17.154 E9.03914
G1 X28.145 Y17.778 E9.07851
G1 X27.602 Y18.351 E9.11789
G1 X27.003 Y18.866 E9.1573
G1 X26.355 Y19.317 E9.19669
G1 X25.664 Y19.701 E9.23613
G1 X24.939 Y20.013 E9.27551
G1 X24.186 Y20.25 E9.31489
G1 X23.412 Y20.409 E9.35432
G1 X22.627 Y20.49 E9.39369
G1 X22.225 Y20.5 E9.41375
G0 F3600 X22.225 Y20.1
G1 F1500 X-22.225 Y20.1 E11.63137
G1 X-22.993 Y20.06 E11.66974
G1 X-23.753 Y19.941 E11.70812
G1 X-24.496 Y19.743 E11.74648
G1 X-25.215 Y19.469 E11.78486
G1 X-25.901 Y19.122 E11.82322
G1 X-26.548 Y18.706 E11.86159
G1 X-27.148 Y18.225 E11.89996
G1 X-27.695 Y17.684 E11.93834
G1 X-28.183 Y17.089 E11.97673
G1 X-28.606 Y16.447 E12.01509
G1 X-28.961 Y15.764 E12.05349
G1 X-29.242 Y15.049 E12.09182
G1 X-29.448 Y14.307 E12.13024
G1 X-29.576 Y13.549 E12.16859
G1 X-29.625 Y12.7 E12.21102
G1 X-29.625 Y-12.7 E13.47823
G1 X-29.585 Y-13.468 E13.5166
G1 X-29.466 Y-14.228 E13.55498
G1 X-29.268 Y-14.971 E13.59334
G1 X-28.994 Y-15.69 E13.63173
G1 X-28.647 Y-16.376 E13.67008
G1 X-28.231 Y-17.023 E13.70846
G1 X-27.75 Y-17.623 E13.74682
G1 X-27.209 Y-18.17 E13.7852
G1 X-26.614 Y-18.658 E13.8236
G1 X-25.972 Y-19.081 E13.86195
G1 X-25.289 Y-19.436 E13.90036
G1 X-24.574 Y-19.717 E13.93868
G1 X-23.832 Y-19.923 E13.9771
G1 X-23.074 Y-20.051 E14.01545
G1 X-22.225 Y-20.1 E14.05788
G1 X22.225 Y-20.1 E16.2755
G1 X22.993 Y-20.06 E16.31387
G1 X23.753 Y-19.941 E16.35225
G1 X24.496 Y-19.743 E16.39061
G1 X25.215 Y-19.469 E16.429
G1 X25.901 Y-19.122 E16.46735
G1 X26.548 Y-18.706 E16.50573
G1 X27.148 Y-18.225 E16.54409
G1 X27.695 Y-17.684 E16.58247
G1 X28.183 Y-17.089 E16.62087
G1 X28.606 Y-16.447 E16.65922
G1 X28.961 Y-15.764 E16.69763
G1 X29.242 Y-15.049 E16.73595
G1 X29.448 Y-14.307 E16.77437
G1 X29.576 Y-13.549 E16.81272
G1 X29.625 Y-12.7 E16.85515
G1 X29.625 Y12.7 E18.12236
G1 X29.585 Y13.468 E18.16073
G1 X29.466 Y14.228 E18.19911
G1 X29.268 Y14.971 E18.23747
G1 X28.994 Y15.69 E18.27586
G1 X28.647 Y16.376 E18.31421
G1 X28.231 Y17.023 E18.35259
G1 X27.75 Y17.623 E18.39095
G1 X27.209 Y18.17 E18.42934
G1 X26.614 Y18.658 E18.46773
G1 X25.972 Y19.081 E18.50608
G1 X25.289 Y19.436 E18.54449
G1 X24.574 Y19.717 E18.58281
G1 X23.832 Y19.923 E18.62123
G1 X23.074 Y20.051 E18.65959
G1 X22.225 Y20.1 E18.70201
G0 F3600 X22.225 Y19.7
G1 F1500 X-22.225 Y19.7 E20.91963
G1 X-22.972 Y19.66 E20.95695
G1 X-23.71 Y19.541 E20.99425
G1 X-24.432 Y19.343 E21.0316
G1 X-25.128 Y19.07 E21.0689
G1 X-25.791 Y18.723 E21.10623
G1 X-26.414 Y18.308 E21.14358
G1 X-26.988 Y17.829 E21.18088
G1 X-27.509 Y17.292 E21.2182
G1 X-27.968 Y16.702 E21.2555
G1 X-28.363 Y16.066 E21.29285
G1 X-28.687 Y15.392 E21.33016
G1 X-28.937 Y14.687 E21.36748
G1 X-29.111 Y13.959 E21.40482
G1 X-29.206 Y13.217 E21.44214
G1 X-29.225 Y12.7 E21.46795
G1 X-29.225 Y-12.7 E22.73516
G1 X-29.185 Y-13.447 E22.77249
G1 X-29.066 Y-14.185 E22.80978
G1 X-28.868 Y-14.907 E22.84713
G1 X-28.595 Y-15.603 E22.88443
G1 X-28.248 Y-16.266 E22.92176
G1 X-27.833 Y-16.889 E22.95911
G1 X-27.354 Y-17.463 E22.99641
G1 X-26.817 Y-17.984 E23.03374
G1 X-26.227 Y-18.443 E23.07103
G1 X-25.591 Y-18.838 E23.10838
G1 X-24.917 Y-19.162 E23.14569
G1 X-24.212 Y-19.412 E23.18301
G1 X-23.484 Y-19.586 E23.22035
G1 X-22.742 Y-19.681 E23.25767
G1 X-22.225 Y-19.7 E23.28348
G1 X22.225 Y-19.7 E25.5011
G1 X22.972 Y-19.66 E25.53842
G1 X23.71 Y-19.541 E25.57572
G1 X24.432 Y-19.343 E25.61307
G1 X25.128 Y-19.07 E25.65037
G1 X25.791 Y-18.723 E25.6877
G1 X26.414 Y-18.308 E25.72505
G1 X26.988 Y-17.829 E25.76235
G1 X27.509 Y-17.292 E25.79968
G1 X27.968 Y-16.702 E25.83697
G1 X28.363 Y-16.066 E25.87432
G1 X28.687 Y-15.392 E25.91163
G1 X28.937 Y-14.687 E25.94895
G1 X29.111 Y-13.959 E25.98629
G1 X29.206 Y-13.217 E26.02361
G1 X29.225 Y-12.7 E26.04942
G1 X29.225 Y12.7 E27.31663
G1 X29.185 Y13.447 E27.35396
G1 X29.066 Y14.185 E27.39125
G1 X28.868 Y14.907 E27.4286
G1 X28.595 Y15.603 E27.4659
G1 X28.248 Y16.266 E27.50323
G1 X27.833 Y16.889 E27.54058
G1 X27.354 Y17.463 E27.57788
G1 X26.817 Y17.984 E27.61521
G1 X26.227 Y18.443 E27.6525
G1 X25.591 Y18.838 E27.68985
G1 X24.917 Y19.162 E27.72716
G1 X24.212 Y19.412 E27.76448
G1 X23.484 Y19.586 E27.80182
G1 X22.742 Y19.681 E27.83914
G1 X22.225 Y19.7 E27.86495
G0 F3600 X22.225 Y19.3
G1 F1500 X-22.225 Y19.3 E30.08257
G1 X-22.95 Y19.26 E30.1188
G1 X-23.667 Y19.141 E30.15506
G1 X-24.366 Y18.943 E30.19131
G1 X-25.039 Y18.67 E30.22754
G1 X-25.678 Y18.325 E30.26377
G1 X-26.275 Y17.911 E30.30001
G1 X-26.823 Y17.435 E30.33623
G1 X-27.316 Y16.901 E30.37249
G1 X-27.746 Y16.316 E30.40871
G1 X-28.11 Y15.687 E30.44496
G1 X-28.403 Y15.022 E30.48122
G1 X-28.621 Y14.329 E30.51746
G1 X-28.761 Y13.617 E30.55367
G1 X-28.825 Y12.7 E30.59953
G1 X-28.825 Y-12.7 E31.86674
G1 X-28.785 Y-13.425 E31.90296
G1 X-28.666 Y-14.142 E31.93922
G1 X-28.468 Y-14.841 E31.97547
G1 X-28.195 Y-15.514 E32.0117
G1 X-27.85 Y-16.153 E32.04793
G1 X-27.436 Y-16.75 E32.08418
G1 X-26.96 Y-17.298 E32.12039
G1 X-26.426 Y-17.791 E32.15665
G1 X-25.841 Y-18.221 E32.19287
G1 X-25.212 Y-18.585 E32.22913
G1 X-24.547 Y-18.878 E32.26538
G1 X-23.854 Y-19.096 E32.30163
G1 X-23.142 Y-19.236 E32.33783
G1 X-22.225 Y-19.3 E32.38369
G1 X22.225 Y-19.3 E34.60131
G1 X22.95 Y-19.26 E34.63753
G1 X23.667 Y-19.141 E34.6738
G1 X24.366 Y-18.943 E34.71004
G1 X25.039 Y-18.67 E34.74627
G1 X25.678 Y-18.325 E34.7825
G1 X26.275 Y-17.911 E34.81875
G1 X26.823 Y-17.435 E34.85496
G1 X27.316 Y-16.901 E34.89122
G1 X27.746 Y-16.316 E34.92744
G1 X28.11 Y-15.687 E34.9637
G1 X28.403 Y-15.022 E34.99995
G1 X28.621 Y-14.329 E35.0362
G1 X28.761 Y-13.617 E35.0724
G1 X28.825 Y-12.7 E35.11826
G1 X28.825 Y12.7 E36.38547
G1 X28.785 Y13.425 E36.4217
G1 X28.666 Y14.142 E36.45796
G1 X28.468 Y14.841 E36.4942
G1 X28.195 Y15.514 E36.53044
G1 X27.85 Y16.153 E36.56667
G1 X27.436 Y16.75 E36.60291
G1 X26.96 Y17.298 E36.63913
G1 X26.426 Y17.791 E36.67539
G1 X25.841 Y18.221 E36.71161
G1 X25.212 Y18.585 E36.74786
G1 X24.547 Y18.878 E36.78412
G1 X23.854 Y19.096 E36.82036
G1 X23.142 Y19.236 E36.85656
G1 X22.225 Y19.3 E36.90243
G0 F3600 X22.225 Y18.9
G1 F1500 X-22.225 Y18.9 E39.12004
G1 X-22.928 Y18.86 E39.15517
G1 X-23.622 Y18.741 E39.1903
G1 X-24.297 Y18.543 E39.2254
G1 X-24.946 Y18.271 E39.26051
G1 X-25.56 Y17.926 E39.29564
G1 X-26.131 Y17.515 E39.33074
G1 X-26.652 Y17.041 E39.36588
G1 X-27.116 Y16.511 E39.40103
G1 X-27.516 Y15.932 E39.43614
G1 X-27.848 Y15.311 E39.47127
G1 X-28.108 Y14.657 E39.50638
G1 X-28.292 Y13.977 E39.54152
G1 X-28.398 Y13.281 E39.57665
G1 X-28.425 Y12.7 E39.60567
G1 X-28.425 Y-12.7 E40.87288
G1 X-28.385 Y-13.403 E40.90801
G1 X-28.266 Y-14.097 E40.94314
G1 X-28.068 Y-14.772 E40.97823
G1 X-27.796 Y-15.421 E41.01334
G1 X-27.451 Y-16.035 E41.04847
G1 X-27.04 Y-16.606 E41.08357
G1 X-26.566 Y-17.127 E41.11871
G1 X-26.036 Y-17.591 E41.15386
G1 X-25.457 Y-17.991 E41.18897
G1 X-24.836 Y-18.323 E41.2241
G1 X-24.182 Y-18.583 E41.25921
G1 X-23.502 Y-18.767 E41.29436
G1 X-22.806 Y-18.873 E41.32948
G1 X-22.225 Y-18.9 E41.3585
G1 X22.225 Y-18.9 E43.57612
G1 X22.928 Y-18.86 E43.61125
G1 X23.622 Y-18.741 E43.64638
G1 X24.297 Y-18.543 E43.68147
G1 X24.946 Y-18.271 E43.71658
G1 X25.56 Y-17.926 E43.75172
G1 X26.131 Y-17.515 E43.78681
G1 X26.652 Y-17.041 E43.82196
G1 X27.116 Y-16.511 E43.8571
G1 X27.516 Y-15.932 E43.89221
G1 X27.848 Y-15.311 E43.92734
G1 X28.108 Y-14.657 E43.96245
G1 X28.292 Y-13.977 E43.9976
G1 X28.398 Y-13.281 E44.03272
G1 X28.425 Y-12.7 E44.06174
G1 X28.425 Y12.7 E45.32895
G1 X28.385 Y13.403 E45.36408
G1 X28.266 Y14.097 E45.39921
G1 X28.068 Y14.772 E45.4343
G1 X27.796 Y15.421 E45.46941
G1 X27.451 Y16.035 E45.50455
G1 X27.04 Y16.606 E45.53965
G1 X26.566 Y17.127 E45.57479
G1 X26.036 Y17.591 E45.60993
G1 X25.457 Y17.991 E45.64504
G1 X24.836 Y18.323 E45.68017
G1 X24.182 Y18.583 E45.71528
G1 X23.502 Y18.767 E45.75043
G1 X22.806 Y18.873 E45.78555
G1 X22.225 Y18.9 E45.81457
G0 F3600 X22.225 Y18.5
G1 F1500 X-22.225 Y18.5 E48.03219
G1 X-22.905 Y18.46 E48.06617
G1 X-23.575 Y18.341 E48.10012
G1 X-24.227 Y18.144 E48.1341
G1 X-24.851 Y17.872 E48.16806
G1 X-25.439 Y17.528 E48.20205
G1 X-25.983 Y17.118 E48.23604
G1 X-26.474 Y16.647 E48.26998
G1 X-26.908 Y16.122 E48.30396
G1 X-27.277 Y15.55 E48.33792
G1 X-27.576 Y14.938 E48.37191
G1 X-27.801 Y14.296 E48.40585
G1 X-27.95 Y13.631 E48.43985
G1 X-28.025 Y12.7 E48.48644
G1 X-28.025 Y-12.7 E49.75366
G1 X-27.985 Y-13.38 E49.78764
G1 X-27.866 Y-14.05 E49.82159
G1 X-27.669 Y-14.702 E49.85557
G1 X-27.397 Y-15.326 E49.88953
G1 X-27.053 Y-15.914 E49.92352
G1 X-26.643 Y-16.458 E49.9575
G1 X-26.172 Y-16.949 E49.99145
G1 X-25.647 Y-17.383 E50.02543
G1 X-25.075 Y-17.752 E50.05939
G1 X-24.463 Y-18.051 E50.09337
G1 X-23.821 Y-18.276 E50.12731
G1 X-23.156 Y-18.425 E50.16131
G1 X-22.225 Y-18.5 E50.20791
G1 X22.225 Y-18.5 E52.42553
G1 X22.905 Y-18.46 E52.45951
G1 X23.575 Y-18.341 E52.49346
G1 X24.227 Y-18.144 E52.52744
G1 X24.851 Y-17.872 E52.5614
G1 X25.439 Y-17.528 E52.59539
G1 X25.983 Y-17.118 E52.62938
G1 X26.474 Y-16.647 E52.66332
G1 X26.908 Y-16.122 E52.6973
G1 X27.277 Y-15.55 E52.73126
G1 X27.576 Y-14.938 E52.76525
G1 X27.801 Y-14.296 E52.79919
G1 X27.95 Y-13.631 E52.83319
G1 X28.025 Y-12.7 E52.87978
G1 X28.025 Y12.7 E54.14699
G1 X27.985 Y13.38 E54.18098
G1 X27.866 Y14.05 E54.21493
G1 X27.669 Y14.702 E54.24891
G1 X27.397 Y15.326 E54.28287
G1 X27.053 Y15.914 E54.31686
G1 X26.643 Y16.458 E54.35084
G1 X26.172 Y16.949 E54.38479
G1 X25.647 Y17.383 E54.41877
G1 X25.075 Y17.752 E54.45273
G1 X24.463 Y18.051 E54.48671
G1 X23.821 Y18.276 E54.52065
G1 X23.156 Y18.425 E54.55465
G1 X22.225 Y18.5 E54.60125
G0 F3600 X22.225 Y18.1
G1 F1500 X-22.225 Y18.1 E56.81887
G1 X-22.881 Y18.06 E56.85166
G1 X-23.527 Y17.941 E56.88443
G1 X-24.154 Y17.744 E56.91722
G1 X-24.752 Y17.472 E56.94999
G1 X-25.313 Y17.13 E56.98277
G1 X-25.828 Y16.722 E57.01555
G1 X-26.29 Y16.255 E57.04832
G1 X-26.691 Y15.735 E57.08109
G1 X-27.027 Y15.171 E57.11384
G1 X-27.291 Y14.569 E57.14663
G1 X-27.481 Y13.94 E57.17941
G1 X-27.592 Y13.293 E57.21217
G1 X-27.625 Y12.7 E57.2418
G1 X-27.625 Y-12.7 E58.50901
G1 X-27.585 Y-13.356 E58.5418
G1 X-27.466 Y-14.002 E58.57457
G1 X-27.269 Y-14.629 E58.60736
G1 X-26.997 Y-15.227 E58.64013
G1 X-26.655 Y-15.788 E58.67291
G1 X-26.247 Y-16.303 E58.70569
G1 X-25.78 Y-16.765 E58.73846
G1 X-25.26 Y-17.166 E58.77122
G1 X-24.696 Y-17.502 E58.80398
G1 X-24.094 Y-17.766 E58.83677
G1 X-23.465 Y-17.956 E58.86955
G1 X-22.818 Y-18.067 E58.9023
G1 X-22.225 Y-18.1 E58.93194
G1 X22.225 Y-18.1 E61.14955
G1 X22.881 Y-18.06 E61.18234
G1 X23.527 Y-17.941 E61.21511
G1 X24.154 Y-17.744 E61.2479
G1 X24.752 Y-17.472 E61.28068
G1 X25.313 Y-17.13 E61.31346
G1 X25.828 Y-16.722 E61.34624
G1 X26.29 Y-16.255 E61.37901
G1 X26.691 Y-15.735 E61.41177
G1 X27.027 Y-15.171 E61.44452
G1 X27.291 Y-14.569 E61.47732
G1 X27.481 Y-13.94 E61.5101
G1 X27.592 Y-13.293 E61.54285
G1 X27.625 Y-12.7 E61.57248
G1 X27.625 Y12.7 E62.83969
G1 X27.585 Y13.356 E62.87248
G1 X27.466 Y14.002 E62.90525
G1 X27.269 Y14.629 E62.93804
G1 X26.997 Y15.227 E62.97082
G1 X26.655 Y15.788 E63.0036
G1 X26.247 Y16.303 E63.03638
G1 X25.78 Y16.765 E63.06915
G1 X25.26 Y17.166 E63.10191
G1 X24.696 Y17.502 E63.13466
G1 X24.094 Y17.766 E63.16746
G1 X23.465 Y17.956 E63.20024
G1 X22.818 Y18.067 E63.23299
G1 X22.225 Y18.1 E63.26262
G0 F3600 X22.225 Y17.7
G1 F1500 X-22.225 Y17.7 E65.48024
G1 X-22.856 Y17.66 E65.51178
G1 X-23.477 Y17.541 E65.54333
G1 X-24.077 Y17.344 E65.57484
G1 X-24.649 Y17.073 E65.60641
G1 X-25.181 Y16.733 E65.63791
G1 X-25.666 Y16.327 E65.66947
G1 X-26.096 Y15.864 E65.70099
G1 X-26.465 Y15.35 E65.73256
G1 X-26.765 Y14.794 E65.76408
G1 X-26.993 Y14.205 E65.79559
G1 X-27.145 Y13.591 E65.82715
G1 X-27.225 Y12.7 E65.87178
G1 X-27.225 Y-12.7 E67.13899
G1 X-27.185 Y-13.331 E67.17053
G1 X-27.066 Y-13.952 E67.20208
G1 X-26.869 Y-14.552 E67.23359
G1 X-26.598 Y-15.124 E67.26516
G1 X-26.258 Y-15.656 E67.29666
G1 X-25.852 Y-16.141 E67.32822
G1 X-25.389 Y-16.571 E67.35974
G1 X-24.875 Y-16.94 E67.39131
G1 X-24.319 Y-17.24 E67.42283
G1 X-23.73 Y-17.468 E67.45434
G1 X-23.116 Y-17.62 E67.4859
G1 X-22.225 Y-17.7 E67.53053
G1 X22.225 Y-17.7 E69.74815
G1 X22.856 Y-17.66 E69.77969
G1 X23.477 Y-17.541 E69.81124
G1 X24.077 Y-17.344 E69.84274
G1 X24.649 Y-17.073 E69.87432
G1 X25.181 Y-16.733 E69.90582
G1 X25.666 Y-16.327 E69.93738
G1 X26.096 Y-15.864 E69.9689
G1 X26.465 Y-15.35 E70.00047
G1 X26.765 Y-14.794 E70.03199
G1 X26.993 Y-14.205 E70.0635
G1 X27.145 Y-13.591 E70.09505
G1 X27.225 Y-12.7 E70.13969
G1 X27.225 Y12.7 E71.4069
G1 X27.185 Y13.331 E71.43844
G1 X27.066 Y13.952 E71.46999
G1 X26.869 Y14.552 E71.50149
G1 X26.598 Y15.124 E71.53307
G1 X26.258 Y15.656 E71.56457
G1 X25.852 Y16.141 E71.59613
G1 X25.389 Y16.571 E71.62765
G1 X24.875 Y16.94 E71.65922
G1 X24.319 Y17.24 E71.69074
G1 X23.73 Y17.468 E71.72225
G1 X23.116 Y17.62 E71.7538
G1 X22.225 Y17.7 E71.79843
G0 F3600 X22.225 Y17.3
G1 F1500 X-22.225 Y17.3 E74.01605
G1 X-22.83 Y17.26 E74.0463
G1 X-23.424 Y17.141 E74.07653
G1 X-23.998 Y16.945 E74.10679
G1 X-24.541 Y16.674 E74.13706
G1 X-25.044 Y16.335 E74.16733
G1 X-25.497 Y15.933 E74.19754
G1 X-25.894 Y15.475 E74.22778
G1 X-26.227 Y14.968 E74.25804
G1 X-26.491 Y14.422 E74.2883
G1 X-26.68 Y13.846 E74.31855
G1 X-26.792 Y13.25 E74.3488
G1 X-26.825 Y12.7 E74.37629
G1 X-26.825 Y-12.7 E75.6435
G1 X-26.785 Y-13.305 E75.67375
G1 X-26.666 Y-13.899 E75.70397
G1 X-26.47 Y-14.473 E75.73423
G1 X-26.199 Y-15.016 E75.76451
G1 X-25.86 Y-15.519 E75.79477
G1 X-25.458 Y-15.972 E75.82499
G1 X-25 Y-16.369 E75.85523
G1 X-24.493 Y-16.702 E75.88549
G1 X-23.947 Y-16.966 E75.91575
G1 X-23.371 Y-17.155 E75.94599
G1 X-22.775 Y-17.267 E75.97625
G1 X-22.225 Y-17.3 E76.00374
G1 X22.225 Y-17.3 E78.22136
G1 X22.83 Y-17.26 E78.2516
G1 X23.424 Y-17.141 E78.28183
