;FLAVOR:Marlin
;TIME:1232
;Filament used: 1.15417m
;Layer height: 0.2
;Generated with Cura_SteamEngine 1.0.0
M190 S35
M104 S220
M109 S220
G28
G1 Z50.00 F400
G92 E0
G1 F200 E3
G92 E0
M132 X Y Z A
M907 X100 Y100 Z50 A100
;LAYER_COUNT:95
;LAYER:0
M107
G0 F3000 X-12.252 Y-8.837 Z0.3
;TYPE:SKIRT
G1 F1500 X-12.222 Y-9.325 E0.02439
G1 X-12.016 Y-11.006 E0.10889
G1 X-11.908 Y-11.56 E0.13704
G1 X-11.723 Y-12.094 E0.16524
G1 X-11.464 Y-12.597 E0.19347
G1 X-11.137 Y-13.058 E0.22166
G1 X-10.748 Y-13.469 E0.2499
G1 X-10.305 Y-13.82 E0.27809
G1 X-9.817 Y-14.106 E0.30631
G1 X-9.294 Y-14.319 E0.33449
G1 X-8.746 Y-14.457 E0.36268
G1 X-8.046 Y-14.519 E0.39774
G1 X8.049 Y-14.519 E1.20072
G1 X8.613 Y-14.479 E1.22893
G1 X9.166 Y-14.36 E1.25715
G1 X9.696 Y-14.164 E1.28534
G1 X10.193 Y-13.896 E1.31352
G1 X10.648 Y-13.56 E1.34173
G1 X11.051 Y-13.163 E1.36996
G1 X11.393 Y-12.713 E1.39816
G1 X11.669 Y-12.22 E1.42634
G1 X11.873 Y-11.692 E1.45458
G1 X11.974 Y-11.291 E1.47521
G1 X12.17 Y-10.295 E1.52586
G1 X12.245 Y-9.523 E1.56455
G1 X12.245 Y12.687 E2.67262
G1 X12.205 Y13.251 E2.70082
G1 X12.086 Y13.804 E2.72905
G1 X11.89 Y14.334 E2.75724
G1 X11.622 Y14.831 E2.78541
G1 X11.286 Y15.286 E2.81363
G1 X10.889 Y15.689 E2.84185
G1 X10.439 Y16.031 E2.87005
G1 X9.946 Y16.307 E2.89824
G1 X9.418 Y16.511 E2.92648
G1 X8.868 Y16.638 E2.95464
G1 X8.246 Y16.687 E2.98577
G1 X-8.245 Y16.691 E3.8085
G1 X-8.809 Y16.651 E3.83671
G1 X-9.362 Y16.532 E3.86493
G1 X-9.892 Y16.337 E3.89311
G1 X-10.39 Y16.068 E3.92135
G1 X-10.844 Y15.732 E3.94953
G1 X-11.247 Y15.336 E3.97771
G1 X-11.59 Y14.886 E4.00594
G1 X-11.866 Y14.393 E4.03413
G1 X-12.07 Y13.865 E4.06237
G1 X-12.197 Y13.315 E4.09053
G1 X-12.246 Y12.692 E4.12171
G1 X-12.252 Y-8.837 E5.1958
G0 F3000 X-11.852 Y-8.837
G1 F1500 X-11.825 Y-9.276 E5.21774
G1 X-11.619 Y-10.957 E5.30223
G1 X-11.515 Y-11.483 E5.32898
G1 X-11.333 Y-11.987 E5.35572
G1 X-11.078 Y-12.459 E5.38248
G1 X-10.756 Y-12.888 E5.40924
G1 X-10.374 Y-13.265 E5.43602
G1 X-9.941 Y-13.58 E5.46273
G1 X-9.465 Y-13.828 E5.48951
G1 X-8.958 Y-14.002 E5.51625
G1 X-8.43 Y-14.098 E5.54303
G1 X-8.046 Y-14.119 E5.56221
G1 X8.049 Y-14.119 E6.3652
G1 X8.584 Y-14.079 E6.39196
G1 X9.107 Y-13.96 E6.41872
G1 X9.606 Y-13.765 E6.44545
G1 X10.071 Y-13.497 E6.47223
G1 X10.491 Y-13.164 E6.49897
G1 X10.857 Y-12.772 E6.52572
G1 X11.16 Y-12.33 E6.55246
G1 X11.395 Y-11.847 E6.57926
G1 X11.581 Y-11.214 E6.61217
G1 X11.777 Y-10.218 E6.66282
G1 X11.845 Y-9.523 E6.69765
G1 X11.845 Y12.687 E7.80572
G1 X11.805 Y13.222 E7.83248
G1 X11.686 Y13.745 E7.85924
G1 X11.491 Y14.244 E7.88597
G1 X11.223 Y14.709 E7.91275
G1 X10.89 Y15.129 E7.93949
G1 X10.498 Y15.495 E7.96624
G1 X10.056 Y15.798 E7.99298
G1 X9.573 Y16.033 E8.01978
G1 X9.062 Y16.193 E8.04649
G1 X8.532 Y16.276 E8.07325
G1 X8.246 Y16.287 E8.08753
G1 X-8.245 Y16.291 E8.91027
G1 X-8.78 Y16.251 E8.93704
G1 X-9.303 Y16.132 E8.9638
G1 X-9.802 Y15.937 E8.99053
G1 X-10.267 Y15.67 E9.01728
G1 X-10.687 Y15.337 E9.04402
G1 X-11.053 Y14.945 E9.07078
G1 X-11.357 Y14.503 E9.09754
G1 X-11.592 Y14.02 E9.12434
G1 X-11.752 Y13.509 E9.15105
G1 X-11.834 Y12.979 E9.17781
G1 X-11.846 Y12.692 E9.19214
G1 X-11.852 Y-8.837 E10.26622
G0 F3000 X-11.452 Y-8.837
G1 F1500 X-11.428 Y-9.227 E10.28572
G1 X-11.222 Y-10.908 E10.37021
G1 X-11.121 Y-11.404 E10.39546
G1 X-10.944 Y-11.877 E10.42066
G1 X-10.694 Y-12.316 E10.44587
G1 X-10.377 Y-12.711 E10.47113
G1 X-10.003 Y-13.051 E10.49635
G1 X-9.58 Y-13.327 E10.52155
G1 X-9.119 Y-13.534 E10.54676
G1 X-8.63 Y-13.665 E10.57202
G1 X-8.046 Y-13.719 E10.60128
G1 X8.049 Y-13.719 E11.40426
G1 X8.553 Y-13.679 E11.42948
G1 X9.044 Y-13.56 E11.45469
G1 X9.511 Y-13.366 E11.47992
G1 X9.941 Y-13.1 E11.50514
G1 X10.324 Y-12.77 E11.53037
G1 X10.65 Y-12.383 E11.55561
G1 X10.911 Y-11.95 E11.58083
G1 X11.101 Y-11.482 E11.60603
G1 X11.189 Y-11.137 E11.6238
G1 X11.385 Y-10.141 E11.67444
G1 X11.445 Y-9.523 E11.70542
G1 X11.445 Y12.687 E12.81348
G1 X11.405 Y13.191 E12.8387
G1 X11.286 Y13.682 E12.86391
G1 X11.092 Y14.149 E12.88914
G1 X10.826 Y14.579 E12.91436
G1 X10.496 Y14.962 E12.93959
G1 X10.109 Y15.288 E12.96483
G1 X9.676 Y15.549 E12.99005
G1 X9.208 Y15.739 E13.01525
G1 X8.715 Y15.852 E13.04049
G1 X8.246 Y15.887 E13.06395
G1 X-8.245 Y15.891 E13.88669
G1 X-8.749 Y15.851 E13.91191
G1 X-9.241 Y15.732 E13.93717
G1 X-9.707 Y15.538 E13.96235
G1 X-10.137 Y15.272 E13.98758
G1 X-10.52 Y14.942 E14.0128
G1 X-10.846 Y14.556 E14.03801
G1 X-11.108 Y14.123 E14.06325
G1 X-11.298 Y13.654 E14.0885
G1 X-11.411 Y13.162 E14.11369
G1 X-11.446 Y12.692 E14.1372
G1 X-11.452 Y-8.837 E15.21128
G1 F1500 E13.21128
G0 F3000 X-8.918 Y-8.836
G0 X-7.633 Y-8.836
G0 X-7.553 Y-9.472
G0 X-7.652 Y-9.481
;TYPE:WALL-INNER
G1 F1500 E15.29443
G1 X-7.563 Y-9.929 E15.31722
G1 X7.563 Y-9.929 E16.07186
G1 X7.655 Y-9.468 E16.09531
G1 X7.655 Y12.1 E17.17135
G1 X-7.455 Y12.1 E17.92519
G1 X-7.655 Y12.1 E17.93517
G1 X-7.655 Y11.9 E17.94163
G1 X-7.652 Y-9.481 E19.00833
G0 F3000 X-8.052 Y-9.519
;TYPE:WALL-OUTER
G1 F1500 X-7.891 Y-10.329 E19.04953
G1 X7.891 Y-10.329 E19.8369
G1 X8.055 Y-9.506 E19.87876
G1 X8.055 Y12.5 E20.97665
G1 X-7.855 Y12.5 E21.7704
G1 X-8.055 Y12.5 E21.78038
G1 X-8.055 Y12.3 E21.78684
G1 X-8.052 Y-9.519 E22.87539
G0 F3000 X-8.013 Y-9.715
G0 X-7.523 Y-9.618
G0 X7.399 Y-9.729
G0 X7.213 Y-9.756
;TYPE:SKIN
G1 F1500 X7.474 Y-9.496 E22.89377
G0 F3000 X7.482 Y-8.922
G1 F1500 X6.648 Y-9.756 E22.95262
G1 X6.578 Y-9.826
G0 F3000 X6.082 Y-9.756
G1 F1500 X7.482 Y-8.356 E23.05139
G1 X7.552 Y-8.286
G0 F3000 X7.482 Y-7.79
G1 F1500 X5.516 Y-9.756 E23.19011
G1 X5.446 Y-9.826
G0 F3000 X4.951 Y-9.756
G1 F1500 X7.482 Y-7.225 E23.36868
G1 X7.552 Y-7.155
G0 F3000 X7.482 Y-6.659
G1 F1500 X4.385 Y-9.756 E23.58719
G1 X4.315 Y-9.826
G0 F3000 X3.819 Y-9.756
G1 F1500 X7.482 Y-6.093 E23.84564
G1 X7.552 Y-6.023
G0 F3000 X7.482 Y-5.528
G1 F1500 X3.254 Y-9.756 E24.14395
G1 X3.184 Y-9.826
G0 F3000 X2.688 Y-9.756
G1 F1500 X7.482 Y-4.962 E24.48219
G1 X7.552 Y-4.892
G0 F3000 X7.482 Y-4.396
G1 F1500 X2.122 Y-9.756 E24.86036
G1 X2.052 Y-9.826
G0 F3000 X1.557 Y-9.756
G1 F1500 X7.482 Y-3.831 E25.27841
G1 X7.552 Y-3.761
G0 F3000 X7.482 Y-3.265
G1 F1500 X0.991 Y-9.756 E25.73638
G1 X0.921 Y-9.826
G0 F3000 X0.425 Y-9.756
G1 F1500 X7.482 Y-2.699 E26.23429
G1 X7.552 Y-2.629
G0 F3000 X7.482 Y-2.134
G1 F1500 X-.14 Y-9.756 E26.77206
G1 X-.21 Y-9.826
G0 F3000 X-.705 Y-9.756
G1 F1500 X7.482 Y-1.568 E27.34974
G1 X7.552 Y-1.498
G0 F3000 X7.482 Y-1.002
G1 F1500 X-1.271 Y-9.756 E27.96734
G1 X-1.341 Y-9.826
G0 F3000 X-1.837 Y-9.756
G1 F1500 X7.482 Y-.436 E28.62488
G1 X7.552 Y-.366
G0 F3000 X7.482 Y0.128
G1 F1500 X-2.402 Y-9.756 E29.32225
G1 X-2.472 Y-9.826
G0 F3000 X-2.968 Y-9.756
G1 F1500 X7.482 Y0.694 E30.05956
G1 X7.552 Y0.764
G0 F3000 X7.482 Y1.26
G1 F1500 X-3.534 Y-9.756 E30.8368
G1 X-3.604 Y-9.826
G0 F3000 X-4.099 Y-9.756
G1 F1500 X7.482 Y1.825 E31.6539
G1 X7.552 Y1.895
G0 F3000 X7.482 Y2.391
G1 F1500 X-4.665 Y-9.756 E32.51093
G1 X-4.735 Y-9.826
G0 F3000 X-5.231 Y-9.756
G1 F1500 X7.482 Y2.957 E33.4079
G1 X7.552 Y3.027
G0 F3000 X7.482 Y3.522
G1 F1500 X-5.796 Y-9.756 E34.34474
G1 X-5.866 Y-9.826
G0 F3000 X-6.362 Y-9.756
G1 F1500 X7.482 Y4.088 E35.32151
G1 X7.552 Y4.158
G0 F3000 X7.482 Y4.654
G1 F1500 X-6.928 Y-9.756 E36.33821
G1 X-6.998 Y-9.826
G0 F3000 X-7.433 Y-9.696
G1 F1500 X7.482 Y5.219 E37.39055
G1 X7.552 Y5.289
G0 F3000 X7.482 Y5.785
G1 F1500 X-7.48 Y-9.177 E38.4462
G1 X-7.55 Y-9.247
G0 F3000 X-7.48 Y-8.611
G1 F1500 X7.482 Y6.351 E39.50185
G1 X7.552 Y6.421
G0 F3000 X7.482 Y6.916
G1 F1500 X-7.48 Y-8.046 E40.5575
G1 X-7.55 Y-8.116
G0 F3000 X-7.48 Y-7.48
G1 F1500 X7.482 Y7.482 E41.61315
G1 X7.552 Y7.552
G0 F3000 X7.482 Y8.048
G1 F1500 X-7.48 Y-6.914 E42.6688
G1 X-7.55 Y-6.984
G0 F3000 X-7.48 Y-6.349
G1 F1500 X7.482 Y8.613 E43.72445
G1 X7.552 Y8.683
G0 F3000 X7.482 Y9.179
G1 F1500 X-7.48 Y-5.783 E44.78009
G1 X-7.55 Y-5.853
G0 F3000 X-7.48 Y-5.217
G1 F1500 X7.482 Y9.745 E45.83574
G1 X7.552 Y9.815
G0 F3000 X7.482 Y10.311
G1 F1500 X-7.48 Y-4.652 E46.89143
G1 X-7.55 Y-4.722
G0 F3000 X-7.481 Y-4.087
G1 F1500 X7.482 Y10.876 E47.94715
G1 X7.552 Y10.946
G0 F3000 X7.482 Y11.442
G1 F1500 X-7.481 Y-3.521 E49.00287
G1 X-7.551 Y-3.591
G0 F3000 X-7.481 Y-2.955
G1 F1500 X7.401 Y11.927 E50.05288
G1 X7.471 Y11.997
G0 F3000 X6.836 Y11.927
G1 F1500 X-7.481 Y-2.39 E51.06302
G1 X-7.551 Y-2.46
G0 F3000 X-7.481 Y-1.824
G1 F1500 X6.27 Y11.927 E52.03323
G1 X6.34 Y11.997
G0 F3000 X5.704 Y11.927
G1 F1500 X-7.481 Y-1.258 E52.9635
G1 X-7.551 Y-1.328
G0 F3000 X-7.481 Y-.692
G1 F1500 X5.139 Y11.927 E53.85387
G1 X5.209 Y11.997
G0 F3000 X4.573 Y11.927
G1 F1500 X-7.481 Y-.127 E54.70435
G1 X-7.551 Y-.197
G0 F3000 X-7.481 Y0.438
G1 F1500 X4.007 Y11.927 E55.51492
G1 X4.077 Y11.997
G0 F3000 X3.442 Y11.927
G1 F1500 X-7.481 Y1.004 E56.2856
G1 X-7.551 Y0.934
G0 F3000 X-7.481 Y1.569
G1 F1500 X2.876 Y11.927 E57.01638
G1 X2.946 Y11.997
G0 F3000 X2.31 Y11.927
G1 F1500 X-7.481 Y2.134 E57.70726
G1 X-7.551 Y2.064
G0 F3000 X-7.481 Y2.7
G1 F1500 X1.745 Y11.927 E58.35823
G1 X1.815 Y11.997
G0 F3000 X1.179 Y11.927
G1 F1500 X-7.481 Y3.266 E58.96928
G1 X-7.551 Y3.196
G0 F3000 X-7.481 Y3.831
G1 F1500 X0.613 Y11.927 E59.54043
G1 X0.683 Y11.997
G0 F3000 X0.048 Y11.927
G1 F1500 X-7.481 Y4.397 E60.07167
G1 X-7.551 Y4.327
G0 F3000 X-7.481 Y4.963
G1 F1500 X-.517 Y11.927 E60.56302
G1 X-.447 Y11.997
G0 F3000 X-1.083 Y11.927
G1 F1500 X-7.481 Y5.528 E61.01447
G1 X-7.551 Y5.458
G0 F3000 X-7.481 Y6.094
G1 F1500 X-1.648 Y11.927 E61.42602
G1 X-1.578 Y11.997
G0 F3000 X-2.214 Y11.927
G1 F1500 X-7.482 Y6.659 E61.7977
G1 X-7.552 Y6.589
G0 F3000 X-7.482 Y7.225
G1 F1500 X-2.78 Y11.927 E62.12946
G1 X-2.71 Y11.997
G0 F3000 X-3.346 Y11.927
G1 F1500 X-7.482 Y7.79 E62.42131
G1 X-7.552 Y7.72
G0 F3000 X-7.482 Y8.356
G1 F1500 X-3.911 Y11.927 E62.67326
G1 X-3.841 Y11.997
G0 F3000 X-4.477 Y11.927
G1 F1500 X-7.482 Y8.922 E62.88528
G1 X-7.552 Y8.852
G0 F3000 X-7.482 Y9.487
G1 F1500 X-5.043 Y11.927 E63.0574
G1 X-4.973 Y11.997
G0 F3000 X-5.608 Y11.927
G1 F1500 X-7.482 Y10.053 E63.18962
G1 X-7.552 Y9.983
G0 F3000 X-7.482 Y10.619
G1 F1500 X-6.174 Y11.927 E63.28191
G1 X-6.104 Y11.997
G0 F3000 X-6.74 Y11.927
G1 F1500 X-7.482 Y11.185 E63.33426
G1 X-7.552 Y11.115
G0 F3000 X-7.482 Y11.75
G1 F1500 X-7.305 Y11.927 E63.34675
G0 F3000 X-7.255 Y11.7
G0 X7.556 Y-9.459
G0 X7.655 Y-9.468
;TIME_ELAPSED:53.677905
;LAYER:1
M140 S35
M106 S255
G0 F5100 X7.655 Y-9.468 Z0.5
;TYPE:WALL-INNER
G1 F2550 X7.655 Y12.1 E64.0641
G1 X-7.455 Y12.1 E64.56666
G1 X-7.655 Y12.1 E64.57332
G1 X-7.655 Y11.9 E64.57762
G1 X-7.65 Y-9.494 E65.28919
G1 X-7.474 Y-10.377 E65.31914
G1 X7.474 Y-10.378 E65.81631
G1 X7.655 Y-9.468 E65.84717
G0 F5100 X8.055 Y-9.506
;TYPE:WALL-OUTER
G1 F1650 X8.055 Y12.5 E66.57909
G1 X-7.855 Y12.5 E67.10826
G1 X-8.055 Y12.5 E67.11491
G1 X-8.055 Y12.3 E67.11922
G1 X-8.05 Y-9.532 E67.84535
G1 X-7.825 Y-10.662 E67.88368
G1 X-7.748 Y-10.777 E67.88828
G1 X7.747 Y-10.778 E68.40365
G1 X7.825 Y-10.662 E68.40829
G1 X8.055 Y-9.506 E68.4475
G0 F5100 X8.055 Y-9.306
G0 X7.555 Y-9.306
G0 X-7.31 Y-10.177
G0 X-6.765 Y-10.204
;TYPE:SKIN
G1 F1650 X-7.473 Y-9.497 E68.48078
G1 X-7.543 Y-9.427
G0 F5100 X-7.477 Y-8.927
G1 F1650 X-6.199 Y-10.204 E68.54087
G1 X-6.129 Y-10.274
G0 F5100 X-5.634 Y-10.204
G1 F1650 X-7.477 Y-8.361 E68.62755
G1 X-7.547 Y-8.291
G0 F5100 X-7.477 Y-7.795
G1 F1650 X-5.068 Y-10.204 E68.74087
G1 X-4.998 Y-10.274
G0 F5100 X-4.502 Y-10.204
G1 F1650 X-7.477 Y-7.23 E68.88078
G1 X-7.547 Y-7.16
G0 F5100 X-7.477 Y-6.664
G1 F1650 X-3.937 Y-10.204 E69.04729
G1 X-3.867 Y-10.274
G0 F5100 X-3.371 Y-10.204
G1 F1650 X-7.478 Y-6.098 E69.24045
G1 X-7.548 Y-6.028
G0 F5100 X-7.478 Y-5.532
G1 F1650 X-2.805 Y-10.204 E69.46023
G1 X-2.735 Y-10.274
G0 F5100 X-2.24 Y-10.204
G1 F1650 X-7.478 Y-4.966 E69.70661
G1 X-7.548 Y-4.896
G0 F5100 X-7.478 Y-4.401
G1 F1650 X-1.674 Y-10.204 E69.97958
G1 X-1.604 Y-10.274
G0 F5100 X-1.108 Y-10.204
G1 F1650 X-7.478 Y-3.835 E70.27919
G1 X-7.548 Y-3.765
G0 F5100 X-7.479 Y-3.268
G1 F1650 X-.543 Y-10.204 E70.60543
G1 X-.473 Y-10.274
G0 F5100 X0.022 Y-10.204
G1 F1650 X-7.479 Y-2.703 E70.95826
G1 X-7.549 Y-2.633
G0 F5100 X-7.479 Y-2.137
G1 F1650 X0.588 Y-10.204 E71.33771
G1 X0.658 Y-10.274
G0 F5100 X1.153 Y-10.204
G1 F1650 X-7.479 Y-1.571 E71.74375
G1 X-7.549 Y-1.501
G0 F5100 X-7.479 Y-1.006
G1 F1650 X1.719 Y-10.204 E72.1764
G1 X1.789 Y-10.274
G0 F5100 X2.285 Y-10.204
G1 F1650 X-7.479 Y-.44 E72.63567
G1 X-7.549 Y-.37
G0 F5100 X-7.479 Y0.125
G1 F1650 X2.851 Y-10.204 E73.12153
G1 X2.921 Y-10.274
G0 F5100 X3.416 Y-10.204
G1 F1650 X-7.479 Y0.691 E73.634
G1 X-7.549 Y0.761
G0 F5100 X-7.479 Y1.257
G1 F1650 X3.982 Y-10.204 E74.17309
G1 X4.052 Y-10.274
G0 F5100 X4.548 Y-10.204
G1 F1650 X-7.479 Y1.822 E74.73878
G1 X-7.549 Y1.892
G0 F5100 X-7.479 Y2.388
G1 F1650 X5.113 Y-10.204 E75.33107
G1 X5.183 Y-10.274
G0 F5100 X5.679 Y-10.204
G1 F1650 X-7.48 Y2.954 E75.95001
G1 X-7.55 Y3.024
G0 F5100 X-7.48 Y3.52
G1 F1650 X6.245 Y-10.204 E76.59556
G1 X6.315 Y-10.274
G0 F5100 X6.81 Y-10.204
G1 F1650 X-7.48 Y4.086 E77.26772
G1 X-7.55 Y4.156
G0 F5100 X-7.48 Y4.652
G1 F1650 X7.339 Y-10.168 E77.96479
G1 X7.409 Y-10.238
G0 F5100 X7.433 Y-9.695
G1 F1650 X-7.48 Y5.217 E78.66622
G1 X-7.55 Y5.287
G0 F5100 X-7.48 Y5.783
G1 F1650 X7.482 Y-9.179 E79.36999
G1 X7.552 Y-9.249
G0 F5100 X7.482 Y-8.613
G1 F1650 X-7.481 Y6.349 E80.07378
G1 X-7.551 Y6.419
G0 F5100 X-7.481 Y6.915
G1 F1650 X7.482 Y-8.048 E80.77759
G1 X7.552 Y-8.118
G0 F5100 X7.482 Y-7.482
G1 F1650 X-7.481 Y7.481 E81.48141
G1 X-7.551 Y7.551
G0 F5100 X-7.481 Y8.046
G1 F1650 X7.482 Y-6.916 E82.1852
G1 X7.552 Y-6.986
G0 F5100 X7.482 Y-6.351
G1 F1650 X-7.481 Y8.612 E82.88901
G1 X-7.551 Y8.682
G0 F5100 X-7.481 Y9.178
G1 F1650 X7.482 Y-5.785 E83.59283
G1 X7.552 Y-5.855
G0 F5100 X7.482 Y-5.219
G1 F1650 X-7.481 Y9.744 E84.29664
G1 X-7.551 Y9.814
G0 F5100 X-7.481 Y10.31
G1 F1650 X7.482 Y-4.654 E85.00048
G1 X7.552 Y-4.724
G0 F5100 X7.482 Y-4.088
G1 F1650 X-7.481 Y10.876 E85.70431
G1 X-7.551 Y10.946
G0 F5100 X-7.481 Y11.441
G1 F1650 X7.482 Y-3.522 E86.40813
G1 X7.552 Y-3.592
G0 F5100 X7.482 Y-2.957
G1 F1650 X-7.401 Y11.927 E87.1082
G1 X-7.471 Y11.997
G0 F5100 X-6.836 Y11.927
G1 F1650 X7.482 Y-2.391 E87.78168
G1 X7.552 Y-2.461
G0 F5100 X7.482 Y-1.825
G1 F1650 X-6.27 Y11.927 E88.42853
G1 X-6.34 Y11.997
G0 F5100 X-5.704 Y11.927
G1 F1650 X7.482 Y-1.26 E89.04878
G1 X7.552 Y-1.33
G0 F5100 X7.482 Y-.694
G1 F1650 X-5.139 Y11.927 E89.64243
G1 X-5.209 Y11.997
G0 F5100 X-4.573 Y11.927
G1 F1650 X7.482 Y-.128 E90.20946
G1 X7.552 Y-.198
G0 F5100 X7.482 Y0.436
G1 F1650 X-4.007 Y11.927 E90.74992
G1 X-4.077 Y11.997
G0 F5100 X-3.442 Y11.927
G1 F1650 X7.482 Y1.002 E91.26377
G1 X7.552 Y0.932
G0 F5100 X7.482 Y1.568
G1 F1650 X-2.876 Y11.927 E91.75101
G1 X-2.946 Y11.997
G0 F5100 X-2.31 Y11.927
G1 F1650 X7.482 Y2.134 E92.21161
G1 X7.552 Y2.064
G0 F5100 X7.482 Y2.699
G1 F1650 X-1.745 Y11.927 E92.64565
G1 X-1.815 Y11.997
G0 F5100 X-1.179 Y11.927
G1 F1650 X7.482 Y3.265 E93.05306
G1 X7.552 Y3.195
G0 F5100 X7.482 Y3.831
G1 F1650 X-.613 Y11.927 E93.43385
G1 X-.683 Y11.997
G0 F5100 X-0.048 Y11.927
G1 F1650 X7.482 Y4.396 E93.78806
G1 X7.552 Y4.326
G0 F5100 X7.482 Y4.962
G1 F1650 X0.517 Y11.927 E94.11567
G1 X0.447 Y11.997
G0 F5100 X1.083 Y11.927
G1 F1650 X7.482 Y5.528 E94.41666
G1 X7.552 Y5.458
G0 F5100 X7.482 Y6.093
G1 F1650 X1.648 Y11.927 E94.69107
G1 X1.578 Y11.997
G0 F5100 X2.214 Y11.927
G1 F1650 X7.482 Y6.659 E94.93886
G1 X7.552 Y6.589
G0 F5100 X7.482 Y7.225
G1 F1650 X2.78 Y11.927 E95.16003
G1 X2.71 Y11.997
G0 F5100 X3.346 Y11.927
G1 F1650 X7.482 Y7.79 E95.3546
G1 X7.552 Y7.72
G0 F5100 X7.482 Y8.356
G1 F1650 X3.911 Y11.927 E95.52257
G1 X3.841 Y11.997
G0 F5100 X4.477 Y11.927
G1 F1650 X7.482 Y8.922 E95.66391
G1 X7.552 Y8.852
G0 F5100 X7.482 Y9.487
G1 F1650 X5.043 Y11.927 E95.77866
G1 X4.973 Y11.997
G0 F5100 X5.608 Y11.927
G1 F1650 X7.482 Y10.053 E95.86681
G1 X7.552 Y9.983
G0 F5100 X7.482 Y10.619
G1 F1650 X6.174 Y11.927 E95.92833
G1 X6.104 Y11.997
G0 F5100 X6.74 Y11.927
G1 F1650 X7.482 Y11.185 E95.96323
G1 X7.552 Y11.115
G0 F5100 X7.482 Y11.75
G1 F1650 X7.305 Y11.927 E95.97156
G0 F5100 X7.255 Y11.7
G0 X7.556 Y-9.459
G0 X7.655 Y-9.468
;TIME_ELAPSED:90.552609
;LAYER:2
G0 F7200 X7.655 Y-9.468 Z0.7
;TYPE:WALL-INNER
